X: 5
T:Missa Ave maris stella / Agnus Dei
N: Derived from Jos0301e-Missa_Ave_maris_stella-Agnus.krn
C: Josquin des Prez
%%abc-version 2.0
%%abcx-abcm2ps-target-version 5.9.1 (29 Sep 2008)
%%abc-creator hum2abc beta
%%abcx-conversion-date 2019/02/12 16:15:38
%%abc-edited-by Jesse Rodin
%%abc-edited-by Jesse Rodin; Victoria Chang 2011/04/01/
%%abcx-initial-encoding-date 2011/04/01/
%%humdrum-veritas 4265632824
%%humdrum-veritas-data 2634538510
%%linebreak <none>
%%barnumbers 0
L: 1/4
M: 3/1
Q: 1/2=120
%%staves [1 2 3 4]
V: 1 clef=treble
V: 2 clef=treble-8
V: 3 clef=treble-8
V: 4 clef=bass
K: F
[V:1] z12 | 
[V:2] G4d6cd | 
[V:3] z12 | 
[V:4] z12 | 
[V:1] G4d6cd | 
[V:2] e4d2f4ed | 
[V:3] z12 | 
[V:4] z12 | 
[V:1] e4d2f4ed | 
[V:2] c3ABcd4cB | 
[V:3] z12 | 
[V:4] z12 | 
[V:1] c3ABcd4cB | 
[V:2] A3FGAB4AG | 
[V:3] z12 | 
[V:4] z12 | 
[V:1] A3FGAB4AG | 
[V:2] F2f2e2d4c2 | 
[V:3] z12 | 
[V:4] z12 | 
[V:1] F2A4GFE4 | 
[V:2] d2f2e2d4^c2 | 
[V:3] z12 | 
[V:4] D,4A,6G,A, | 
[V:1] D2d3cB2A2G2- | 
[V:2] d2G2B3AF2G2 | 
[V:3] G4d6cd | 
[V:4] B,4z2G,2A,2B,2 | 
[V:1] G2c3Ac2BAG2 | 
[V:2] E2A6G2E2 | 
[V:3] e4z2c2d2e2 | 
[V:4] C4z2A,2B,2C2 | 
[V:1] FGABc2F2z2c2 | 
[V:2] DEFGA2B2c3d | 
[V:3] f4z2d2e2f2 | 
[V:4] D4C2B,2A,4 | 
[V:1] B3A/G/A2c2d2f2- | 
[V:2] e2d4c2f3g | 
[V:3] g4f2e2d4 | 
[V:4] G,4z4z4 | 
[V:1] fee3dd4^c2 | 
[V:2] aga4f2e4 | 
[V:3] c4z4z4 | 
[V:4] A,8A,4 | 
[V:1] d2A2B2A3FA2 | 
[V:2] d4z4f4 | 
[V:3] d8d4 | 
[V:4] D,3E,G,2F,4D,2 | 
[V:1] G2E4F2G3E | 
[V:2] g3fedd4c2 | 
[V:3] G3Ac2B4G2 | 
[V:4] E,2C,4D,2E,4 | 
[V:1] FGA4B2c3d | 
[V:2] defga2g4^f2 | 
[V:3] A2F4G2A4 | 
[V:4] D,4z4z4 | 
[V:1] _e2d2G2c4=B2 | 
[V:2] g6fed4 | 
[V:3] G4z4z4 | 
[V:4] G,4E,2F,2G,4 | 
[V:1] c4z4z2e2 | 
[V:2] (3:2:6c4A2a4g2f2e4 | 
[V:3] c4A2B2c4 | 
[V:4] A,4F,2G,2A,4 | 
[V:1] f2d4g2f2d2 | 
[V:2] d4z2G2A2B2 | 
[V:3] d4B2c2d4 | 
[V:4] D,2G,3F,E,2D,4 | 
[V:1] ec2BG2A2B2G2 | 
[V:2] c3de2f2d2e2 | 
[V:3] G2c3BA2G4 | 
[V:4] C,4z2F,2G,2E,2 | 
[V:1] A3GA2B2G2A2 | 
[V:2] c2f4d2e2c2 | 
[V:3] F4z2B2c2A2 | 
[V:4] F,2D,2F,2G,2E,2F,2 | 
[V:1] z2B4G2A2d2 | 
[V:2] z2d4e2c2g2 | 
[V:3] B2G2B2c2A2B2 | 
[V:4] G,3F,G,2E,2F,2G,2 | 
[V:1] c2A3Bc3BG2 | 
[V:2] e2f2c4g4 | 
[V:3] c3Bc2A2B2c2 | 
[V:4] A,3G,A,2F,2E,4 | 
[V:1] B2A3GG4^F2 | 
[V:2] f3ef2d3cd2 | 
[V:3] d3cf2B2A4 | 
[V:4] D,12 | 
[V:1] G12 ||  
[V:2] B12 ||  
[V:3] G12 ||  
[V:4] G,12 ||  
[V:1]  [K:F] [K:clef=treble][M:2/1]z8 | 
[V:2]  [K:F] [K:clef=treble-8][M:2/1]g8 | 
[V:3]  [K:F] [K:clef=treble-8][M:2/1]z8 | 
[V:4]  [K:F] [K:clef=bass][M:2/1]z8 | 
[V:1] c8 | 
[V:2] a4a4 | 
[V:3] z8 | 
[V:4] z8 | 
[V:1] d4d4 | 
[V:2] g3fg2d2 | 
[V:3] z8 | 
[V:4] z8 | 
[V:1] c3Bc2G2 | 
[V:2] f3ge4 | 
[V:3] z8 | 
[V:4] z8 | 
[V:1] B3cA4 | 
[V:2] d4z2d2 | 
[V:3] z8 | 
[V:4] z8 | 
[V:1] G4z2G2 | 
[V:2] e4e4 | 
[V:3] z8 | 
[V:4] z8 | 
[V:1] A4A4 | 
[V:2] d3cd2A2 | 
[V:3] z8 | 
[V:4] z8 | 
[V:1] G3FG2D2 | 
[V:2] c3dB4 | 
[V:3] z8 | 
[V:4] z8 | 
[V:1] F3GE4 | 
[V:2] A8 | 
[V:3] z8 | 
[V:4] z8 | 
[V:1] D8 | 
[V:2] z4f4 | 
[V:3] z8 | 
[V:4] z8 | 
[V:1] z4B4 | 
[V:2] g4g4 | 
[V:3] z8 | 
[V:4] z8 | 
[V:1] c4c4 | 
[V:2] a3gf2e2 | 
[V:3] z8 | 
[V:4] z8 | 
[V:1] d3cB2A2 | 
[V:2] d4z2d2 | 
[V:3] z8 | 
[V:4] z8 | 
[V:1] G4z2G2 | 
[V:2] e2g3fge | 
[V:3] z8 | 
[V:4] z8 | 
[V:1] A2c3BcA | 
[V:2] f2e2c4 | 
[V:3] z8 | 
[V:4] z8 | 
[V:1] B2A2F4 | 
[V:2] z2c2d2f2- | 
[V:3] z8 | 
[V:4] z8 | 
[V:1] z2F2G2B2- | 
[V:2] fefde2d2 | 
[V:3] z8 | 
[V:4] z8 | 
[V:1] BABGA2G2 | 
[V:2] g3efge2 | 
[V:3] z8 | 
[V:4] z8 | 
[V:1] c3ABcA2 | 
[V:2] a3fgaf2- | 
[V:3] z8 | 
[V:4] z8 | 
[V:1] d3BcdB2- | 
[V:2] fefdefg2- | 
[V:3] z8 | 
[V:4] z8 | 
[V:1] BABGABc2- | 
[V:2] gfged2c2 | 
[V:3] z8 | 
[V:4] z8 | 
[V:1] cBcAG2F2 | 
[V:2] f4z2d2- | 
[V:3] z8 | 
[V:4] z8 | 
[V:1] B4z2G2- | 
[V:2] deg2f2g2 | 
[V:3] z8 | 
[V:4] z8 | 
[V:1] GAc2B2c2 | 
[V:2] e4z2c2- | 
[V:3] z8 | 
[V:4] z8 | 
[V:1] A4z2F2- | 
[V:2] cdf2e2f2 | 
[V:3] z8 | 
[V:4] z8 | 
[V:1] FGB2A2B2 | 
[V:2] d4z2d2 | 
[V:3] z8 | 
[V:4] z8 | 
[V:1] G4z2G2 | 
[V:2] e3defge | 
[V:3] z8 | 
[V:4] z8 | 
[V:1] A3GABcA | 
[V:2] f2defdef | 
[V:3] z8 | 
[V:4] z8 | 
[V:1] B2GABGAB | 
[V:2] g3fgefg | 
[V:3] z8 | 
[V:4] z8 | 
[V:1] c3BcABc | 
[V:2] (3:2:5a3ga2f2e4 | 
[V:3] z8 | 
[V:4] z8 | 
[V:1] (3:2:5d3cd2B2A4 | 
[V:2] (3:2:6d3ef2g2a2^f2 | 
[V:3] z8 | 
[V:4] z8 | 
[V:1] G8 ||  
[V:2] g8 ||  
[V:3] z8 ||  
[V:4] z8 ||  
[V:1]  [K:F] [K:clef=treble][M:2/1]z8 | 
[V:2]  [K:F] [K:clef=treble-8][M:2/1]z8 | 
[V:3]  [K:F] [K:clef=treble-8][M:2/1]z8 | 
[V:4]  [K:F] [K:clef=bass][M:2/1]G,4D4- | 
[V:1] z8 | 
[V:2] z4G4 | 
[V:3] z8 | 
[V:4] D2CD_E2D2- | 
[V:1] z8 | 
[V:2] d6cd | 
[V:3] z8 | 
[V:4] DCB,A,G,4 | 
[V:1] z8 | 
[V:2] _e2d3cBA | 
[V:3] G4d4- | 
[V:4] z8 | 
[V:1] z4G4 | 
[V:2] G4z4 | 
[V:3] d2cde4 | 
[V:4] z4C4 | 
[V:1] d6cd | 
[V:2] z8 | 
[V:3] d2f4ed | 
[V:4] B,3A,B,2C2 | 
[V:1] e4d2f2- | 
[V:2] z2c2B3A | 
[V:3] c4d4- | 
[V:4] A,4z4 | 
[V:1] f2edc4 | 
[V:2] B2c2A3G | 
[V:3] d2e2f4- | 
[V:4] z4z2F,2- | 
[V:1] d6e2 | 
[V:2] A2B2G4 | 
[V:3] f2d2g4 | 
[V:4] F,2G,4E,2 | 
[V:1] f6d2 | 
[V:2] d6B2 | 
[V:3] f2d2f2g2 | 
[V:4] D,4z4 | 
[V:1] g4f2d2 | 
[V:2] (3c2G2c2(3A2f3e | 
[V:3] e4d4 | 
[V:4] C,4D,2B,,2 | 
[V:1] f2g2e4 | 
[V:2] (3:2:7d cB3Ac2G2c2 | 
[V:3] z8 | 
[V:4] D,2_E,2C,4 | 
[V:1] d4z4 | 
[V:2] B6G2 | 
[V:3] d4d4 | 
[V:4] B,,2B,2G,2B,2- | 
[V:1] z4d4 | 
[V:2] B3cdef2- | 
[V:3] G6A2 | 
[V:4] B,A,G,4F,E, | 
[V:1] d4G4- | 
[V:2] f2d2e2c2- | 
[V:3] B4c3d | 
[V:4] D,4C,4 | 
[V:1] G2A2B4 | 
[V:2] c2f3de2 | 
[V:3] _e2d4cB | 
[V:4] z4z2G,2 | 
[V:1] c3d_e2d2- | 
[V:2] c4z2g2 | 
[V:3] A4G4 | 
[V:4] A,2F,2G,2B,2- | 
[V:1] d2cBA4 | 
[V:2] d2e2f3g | 
[V:3] z4c4 | 
[V:4] B,2A,G,F,3E, | 
[V:1] G4z4 | 
[V:2] e3cc2a2- | 
[V:3] c4A4- | 
[V:4] C,4F,4- | 
[V:1] c4c4 | 
[V:2] a2gfe4 | 
[V:3] A2B2c4 | 
[V:4] F,2G,2A,4 | 
[V:1] A6B2 | 
[V:2] f3defg2 | 
[V:3] d4c2B2 | 
[V:4] D,4z2G,2 | 
[V:1] c4d4 | 
[V:2] c2f2z2B2 | 
[V:3] A4G4 | 
[V:4] A,2F,2B,4 | 
[V:1] c2B2A4 | 
[V:2] c2d3efg | 
[V:3] z2G2A2c2- | 
[V:4] A,2G,2F,3E, | 
[V:1] G4z2G2 | 
[V:2] ecf3eed | 
[V:3] c2BAG4 | 
[V:4] C,8 | 
[V:1] A2c4BA | 
[V:2] f2c3Ad2 | 
[V:3] F4z4 | 
[V:4] z2A,2F,2D,2 | 
[V:1] G4F4 | 
[V:2] B2c2d2f2- | 
[V:3] z4B3c | 
[V:4] _E,3D,B,,4 | 
[V:1] z8 | 
[V:2] fga3gfe | 
[V:3] d2c4A2 | 
[V:4] z2F,2F,2F,2 | 
[V:1] B3cd2c2- | 
[V:2] d4z2f2 | 
[V:3] B2G2B2c2 | 
[V:4] G,4z2F,2 | 
[V:1] c2A2B2G2 | 
[V:2] f2f2dcBA | 
[V:3] A4G4 | 
[V:4] F,2F,2G,4 | 
[V:1] B2c2A4 | 
[V:2] G2A2z2f2 | 
[V:3] z2c4A2 | 
[V:4] z2F,2F,2F,2 | 
[V:1] G4z2c2- | 
[V:2] d2e2c2f2 | 
[V:3] B2c3BAG | 
[V:4] G,2C,2F,3G, | 
[V:1] c2A2B2c2- | 
[V:2] e2f2d2e2 | 
[V:3] FGAFG4 | 
[V:4] A,2D,2G,2C,2 | 
[V:1] cBAG^FGAF | 
[V:2] c4d4 | 
[V:3] A8 | 
[V:4] F,3E,D,4 | 
[V:1] G8- | 
[V:2] z2d2_e4 | 
[V:3] G8- | 
[V:4] z2G,2_E,2C,2 | 
[V:1] G8- | 
[V:2] d4_e4 | 
[V:3] G8- | 
[V:4] G,4C,4 | 
[V:1] G8 |]  
[V:2] d8 |]  
[V:3] G8 |]  
[V:4] G,8 |]  



